X: 23351
T: Leitrim Fancy, The
R: hornpipe
M: 4/4
K: Dmajor
|:AG|FAEA DEFG|A/B/A GB A2de|fdge agec|dBAF GBAG|
FAEA DEFG|A/B/A GB A2de|fdge agec|Addc d2:|
zg|fefg afdg|fefg a2 e/f/g|agec dfec|dcAF G3e|
fefg afdg|fefg a2 e/f/g|agec dfec|Addc d2zg|
fefg afdg|fefg a2 e/f/g|agec dfec|dcAF GBAG|
FAEA DEFG|A/B/A GB A2de|fdge agec|Addc d2||

